X: 37338
T: Skyline
R: jig
M: 6/8
K: Dmajor
zDE|~F3 FED|FAF F2E|DFA dAF|E2z zDE|
~F3 FED|FEF GFE|DFA dAF|1 D2z zDE:|2 D2z zde||
f2d ecA|dcB A2F|GAB AFD|E2z zde|f2d ecA|
dcB A2F|Bcd FGE|1 D2z zde:|2 D2z zGA||
K: G
~B3 BAG|~B3 B2A|GBd gdB|~A3 zGA|
~B3 BAG|~B3 cBA|GBd gdB|1 ~G3 z2A:|2 ~G3 zga||
~b2g afd|gfe d2B|cde dBG|A3 zga|
~b2g afd|gfe d2B|efg BcA|1 G3 zga:|2 G3 zGA||

